!!!!SEGMENT: pl-kc--40102-iii-1-saf--002-044_zielenski-mikolaj--communiones-totius-anni-in-festo-s-ioannis-baptistae-tu-puer-propheta.krn
!!!cenid: 16xx:1575
!!!COM: Zieleński, Mikołaj
!!!COM-rismid: pe30013481
!!!CDT: <1611->1611
!!!CNT: Polish
!!!GTL: Communiones totius anni
!!!OTL: In festo S. Ioannis Baptistae/Tu puer Propheta
!!!OMV: 044
!!!PDT: 1611
!!!AGN:
!!!SMS-siglum: PL-Kc
!!!SMS-shelfmark: 40102 III/1 Saf.
!!!SMS-shelfwork: 002-044 G
!!!SMS-variant:
!!!SMS-altvar:
!!!NIFC-rismid: 990069887
!!!URL-scan: https://cyfrowe.mnk.pl/dlibra/publication/24235/edition/23926/content?ref=desc
!!!ONB-nifc: UWAGA: str. 68-69. Numer w źródle: 52. Uwaga: W xml metrum 2/1 do źródłowego C| i odpowiednio 3/1 do 3/2
!!!AIN: 5 organ
!!!key:
**kern	**kern	**kern	**kern	**kern
*part5	*part4	*part3	*part2	*part1
*staff5	*staff4	*staff3	*staff2	*staff1
*I"	*I"	*I"	*I"	*I"Organo
*I'	*I'	*I'	*I'	*I'org
*Iorgan	*Iorgan	*Iorgan	*Iorgan	*Iorgan
*ICklav	*ICklav	*ICklav	*ICklav	*I'org
*clefF4	*clefC4	*clefC3	*clefC1	*clefC1
*k[]	*k[]	*k[]	*k[]	*k[]
*G:	*G:	*G:	*G:	*G:
*M2/1	*M2/1	*M2/1	*M2/1	*M2/1
*met(C|)	*met(C|)	*met(C|)	*met(C|)	*met(C|)
=1	=1	=1	=1	=1
!	!	!	!	!LO:TX:b:t=Tu puer Propheta
!	!	!	!	!LO:TX:a:t=52.  In feſto S. Ioannis Baptiſtae,   a  5.
00r	00r	00r	0r	1a
.	.	.	.	1g
=2-	=2-	=2-	=2-	=2-
.	.	.	1a	2f/
.	.	.	.	2d/
.	.	.	1g	1e
=3	=3	=3	=3	=3
00r	00r	0r	2f/	2d/
.	.	.	2d/	2dd\
.	.	.	2e/	1cc
.	.	.	2f#X/	.
=4-	=4-	=4-	=4-	=4-
.	.	1r	2g/	2b\
.	.	.	1g	2g/
.	.	1d	.	2a\
.	.	.	2f#y/	2b\
=5	=5	=5	=5	=5
0r	1A	1c	2e/	1cc
.	.	.	4c/	.
.	.	.	4d/	.
.	1G	2B/	4e/	1r
.	.	.	4f/	.
.	.	2G/	4g/	.
.	.	.	4e/	.
=6-	=6-	=6-	=6-	=6-
1D	2F/	2.A/	4f/	0r
.	.	.	4d/	.
.	2D/	.	4f/	.
.	.	4B/	4g/	.
1C	1E	4c/	4a\	.
.	.	4d\	8g/	.
.	.	.	8f/	.
.	.	4e\	4g/	.
.	.	4f\	4a\	.
=7	=7	=7	=7	=7
2BB/	1D	4g\	2b\	1dd
.	.	4d\	.	.
2GG/	.	2g\	2b\	.
4AA/	2A/	2.e\	1a	1cc
4BB/	.	.	.	.
4C/	2A/	.	.	.
4D/	.	4f\	.	.
=8-	=8-	=8-	=8-	=8-
1E	1G	2g\	0r	2b\
.	.	4f\	.	2g/
.	.	4e\	.	.
2D/	2d\	2f\	.	2a\
2D/	2d\	2f\	.	2b\
=9	=9	=9	=9	=9
2.AA/	2c\	2e\	0r	1cc
.	2A/	2f\	.	.
4BB/	.	.	.	.
1C	2A/	2f\	.	2r
.	2G/	2e\	.	2cc\
=10-	=10-	=10-	=10-	=10-
1r	2F#X/	1d	2r	2cc\
.	2G/	.	2g/	2b\
1D	1A	2r	2g/	1b
.	.	2A/	2f/	.
=11	=11	=11	=11	=11
2D/	1A	2.e\	1e	2r
2C/	.	.	.	2a\
.	.	4e\	.	.
1BB	2r	2d\	1r	2.dd\
.	2D/	2g\	.	.
.	.	.	.	4dd\
=12-	=12-	=12-	=12-	=12-
2r	2.A/	2f\	0r	2dd\
2AA/	.	2e\	.	2cc\
.	4A/	.	.	.
2.E\	2A/	1e	.	2b\
.	2G#X/	.	.	2b\
4E\	.	.	.	.
=13	=13	=13	=13	=13
2C#X/	2A/	2e\	2r	1a
2D/	2A/	2.a\	2a\	.
2BB/	1D	.	2.dd\	1r
.	.	4a\	.	.
2BB/	.	2g#X\	.	.
.	.	.	4dd\	.
=14-	=14-	=14-	=14-	=14-
1AA	2r	4a\	2dd\	0r
.	.	8g#y\	.	.
.	.	8f\	.	.
.	2A/	4e\	2cc\	.
.	.	4f#X\	.	.
1r	2.e\	4g#X\	2b\	.
.	.	2a\	.	.
.	.	.	2b\	.
.	4e\	4g#X\	.	.
=15	=15	=15	=15	=15
0r	2c#X\	4a\	1a	2r
.	.	4g\	.	.
.	2d\	4f\	.	2a\
.	.	4e\	.	.
.	2B\	2.d\	2r	2.dd\
.	2B\	.	2d/	.
.	.	4e\	.	4dd\
=16-	=16-	=16-	=16-	=16-
1r	1A	2f\	2.a\	2dd\
.	.	2e\	.	2cc\
.	.	.	4a\	.
2r	1G	2g\	2b\	2b\
2GG/	.	2g\	[<2dd\	2b\
=17	=17	=17	=17	=17
2.D/	1.A	2.f\	2dd\]	1a
.	.	.	2.a\	.
4D/	.	4f\	.	.
2D/	.	2f\	.	2r
.	.	.	4b\	.
2C/	2A/	2e\	4cc\	2a\
.	.	.	2a\	.
=18-	=18-	=18-	=18-	=18-
2BB-X/	2D/	2f\	.	2.dd\
.	.	.	8g/	.
.	.	.	8f/	.
2BB-/	2D/	2d\	2g/	.
.	.	.	.	4dd\
2.AA/	[<1A	1e	2a\	2dd\
.	.	.	2e/	[y2cc\
4BB-/	.	.	.	.
=19	=19	=19	=19	=19
!	!	!	!	!LO:N:xstem:cue
2C/	1A]	2r	2e/	4cc\]
.	.	.	.	4b\
1D	.	1d	1f	4a\
.	.	.	.	4g\
.	0A	.	.	4a\
.	.	.	.	4d/
!	!	!	!	!LO:TX:t=P:LO:N:vis=2:problem
2DD/	.	2f\	2a\	2.dd\
=20-	=20-	=20-	=20-	=20-
1AA	.	1e	1a	.
.	.	.	.	8cc#X\
.	.	.	.	8b\
.	.	.	.	2cc#\
1DD	1A	1f	1a	1dd
!LO:TX:t=P:problem=takty 21-40 zapisane znakiem repetycji	!LO:TX:t=P:problem=takty 21-40 zapisane znakiem repetycji	!LO:TX:t=P:problem=takty 21-40 zapisane znakiem repetycji	!LO:TX:t=P:problem=takty 21-40 zapisane znakiem repetycji	!LO:TX:t=P:problem=takty 21-40 zapisane znakiem repetycji
*custos:AA	*custos:d	*custos:e	*custos:a	*custos:f
!!linebreak:original
=21:||:	=21:||:	=21:||:	=21:||:	=21:||:
*M3/2	*M3/2	*M3/2	*M3/2	*M3/2
!LO:N:vis=00	!	!LO:N:vis=00	!	!
00.r	1d	00.r	1f#X	1a
.	1d	.	1f#	1a
.	1B	.	1g	1dd
=22-	=22-	=22-	=22-	=22-
.	0A	.	0a	0cc
.	1d	.	1f#X	1a
=23-	=23-	=23-	=23-	=23-
!	!	!LO:N:vis=00	!	!
00.r	0G	00.r	0g	0b
.	1c	.	1e	1g
=24-	=24-	=24-	=24-	=24-
.	1.A	.	1.a	1.cc
.	2A/	.	2a\	2cc\
.	1A	.	1a	1cc
=25	=25	=25	=25	=25
!LO:N:vis=00	!	!LO:N:vis=00	!	!
00.r	1.e	00.r	1.g#X	1.b
.	2e\	.	2g#/	2b\
!	!	!	!	!LO:TX:t=P:problem=dopisana odręcznie 1b
.	1c#X	.	1a	1r
=26-	=26-	=26-	=26-	=26-
.	0d	.	0f#X	0a
.	1B	.	1g#X	1dd
=27-	=27-	=27-	=27-	=27-
!LO:N:vis=0	!	!LO:N:vis=0	!	!
0.r	0.A	0.r	0.a	0.cc#X
=28-	=28-	=28-	=28-	=28-
!	!	!	!LO:N:vis=0	!LO:N:vis=0
1AA	1c#X	1e	0.r	0.r
1AA	1c#	1e	.	.
1D	1d	1f#X	.	.
=29	=29	=29	=29	=29
!	!	!	!LO:N:vis=00	!LO:N:vis=00
0GG	0B	0g	00.r	00.r
1C	1c	1e	.	.
=30-	=30-	=30-	=30-	=30-
1.FF	0A	1.f	.	.
2GG/	.	2e\	.	.
2AA/	1A	2c/	.	.
2BB/	.	2d\	.	.
=31-	=31-	=31-	=31-	=31-
!	!	!	!LO:N:vis=00	!LO:N:vis=00
1C	1G	1e	00.r	00.r
1D	1F	1d	.	.
1BB	1D	1d	.	.
=32-	=32-	=32-	=32-	=32-
1.AA	1A	1c#X	.	.
.	1.A	1.e	.	.
2BB/	.	.	.	.
1C#X	.	.	.	.
.	2G/	2d\	.	.
=33	=33	=33	=33	=33
!	!	!	!LO:N:vis=00	!LO:N:vis=00
1D	1F	1.d	00.r	00.r
1AA	1E	.	.	.
.	.	4c#X/	.	.
.	.	4B/	.	.
1AA	1E	1c#	.	.
=34-	=34-	=34-	=34-	=34-
0.D	0.F#X	0.d	.	.
=35-	=35-	=35-	=35-	=35-
1D	1A	1f#X	1dd	1a
1D	1A	1f#	1dd	1a
1GG	1d	1g	1b	1b
=36-	=36-	=36-	=36-	=36-
0C	0G	0.e	0cc	0g
1C	1G	.	1g	1g
=37	=37	=37	=37	=37
1GG	1G	1d	1g	1b
1GG	1G	1d	1g	1b
1D	1A	1d	1f#X	1a
=38-	=38-	=38-	=38-	=38-
0AA	0A	0e	0a	0cc
1E	1B	1e	1g	1b
=39-	=39-	=39-	=39-	=39-
0BB	0B	0d	0g	0dd
1C	1G	1e	1g	1cc
=40-	=40-	=40-	=40-	=40-
0GG	0G	0d	0g	0a
1AA	1c	1c	1e	1a
=41	=41	=41	=41	=41
1.E	1B	0.e	0.e	1g#X
.	1G	.	.	1.b
2D/	.	.	.	.
1C	1A	.	.	.
.	.	.	.	2a\
=42-	=42-	=42-	=42-	=42-
!	!	!LO:N:vis=0	!	!
2BB/	1c	0.r	0e	0a
2AA/	.	.	.	.
1E	1.B	.	.	.
1E	.	.	1e	1g#X
.	2B\	.	.	.
=43-	=43-	=43-	=43-	=43-
1.AA	1.A	1.c	0.e	1a
.	.	.	.	1.cc
2BB/	4G/	4B/	.	.
.	4F/	4A/	.	.
1C	1E	1G	.	.
.	.	.	.	2b\
=44-	=44-	=44-	=44-	=44-
1FF	1r	0c	0f	1a
1C	1G	.	.	0gny
1C	1G	1c	1e	.
=45	=45	=45	=45	=45
*M2/1	*M2/1	*M2/1	*M2/1	*M2/1
*met(C|)	*met(C|)	*met(C|)	*met(C|)	*met(C|)
1FF	2F/	2.c/	0f	1.a
.	2A/	.	.	.
.	.	4c/	.	.
0r	2B-X\	2d\	.	.
.	2A\	2c/	.	2a\
=46-	=46-	=46-	=46-	=46-
.	4r	2g\	0r	2b-X\
.	2G/	.	.	.
.	.	1d	.	2a\
.	4F#X/	.	.	.
2r	2G/	.	.	4r
.	.	.	.	2g/
2D/	2A/	4r	.	.
.	.	[<4d\	.	4f#X/
=47	=47	=47	=47	=47
2E-X\	2r	4d\]	2r	2g/
.	.	4c/	.	.
2D/	2A/	2d\	2a\	2f#X/
4r	2G/	1.d	2b-X\	0r
2GG/	.	.	.	.
.	2A/	.	2a\	.
4FF#X/	.	.	.	.
=48-	=48-	=48-	=48-	=48-
2GG/	4.D/	.	4r	.
.	.	.	2dd\	.
.	8E/	.	.	.
2AA/	4F/	4.a\	.	.
.	4E/	.	4cc#X\	.
.	.	8g\	.	.
1r	1D	4f#X\	2dd\	2r
.	.	2g\	.	.
.	.	.	2dd\	2a\
.	.	4f#X\	.	.
=49	=49	=49	=49	=49
2r	2G/	2g\	4r	2b-X\
.	.	.	2dd\	.
4r	2A/	2e\	.	1a
4AA/	.	.	4cc\	.
2D\	2A/	2f\	2dd\	.
2GG/	4.G/	1g\	2b\	4r
.	.	.	.	2dd\
.	8F/	.	.	.
=50-	=50-	=50-	=50-	=50-
4r	2E/	.	1r	.
2C/	.	.	.	4cc\
.	2D/	4r	.	2dd\
4BB/	.	4f\	.	.
2.C/	2E/	[y1e	2r	2g/
.	2E/	.	2g/	[y2cc\
4BB/	.	.	.	.
=51	=51	=51	=51	=51
*lig	*	*	*	*
*col	*	*	*	*
!LO:TX:b:t=Partitura Nicolai Zielenski.                I     2	!	!LO:N:vis=4:xstem:cue	!	!LO:N:xstem:cue
1AA	2.c\	2e\]	1.a	4cc\]
.	.	.	.	4b\
.	.	2e\	.	4a\
.	4B\	.	.	4g/
*col	*	*	*	*
2.D\	4A/	1.d	.	4f/
.	4G/	.	.	4d/
.	4F#X/	.	2a\	2.dd\
*Xlig	*	*	*	*
4C/	4E/	.	.	.
*Xcol	*	*	*	*
=52-	=52-	=52-	=52-	=52-
2BB/	2F#X/	.	2b\	.
.	.	.	.	4cc\
2GG/	2G/	2.g\	2dd\	2b\
1D	1A	.	1dd	1a
.	.	8f#X\	.	.
.	.	8e\	.	.
.	.	2f#\	.	.
*custos:GG	*custos:G	*custos:g	*custos:dd	*custos:b
!!pagebreak:original
=53	=53	=53	=53	=53
2GG/	2G/	2g\	2dd\	2b\
=:||:	=:||:	=:||:	=||:	=:||:
1GG	1G	1d	1b	1dd
2D\	2F#X/	2d\	2a\	2a\
=54	=54	=54	=54	=54
0GG	4G/	0d	2g/	0b
.	4A\	.	.	.
.	4B\	.	1g	.
.	4c\	.	.	.
.	2d\	.	.	.
.	2G/	.	4f#X/	.
.	.	.	4e/	.
=56-	=56-	=56-	=56-	=56-
0Dl	0Al	0dl	0f#Xl	0al
==	==	==	==	==
*-	*-	*-	*-	*-
!!!system-decoration: [s1,s2,s3,s4,s5]
!!!RDF**kern: l = terminal long
!!!RDF**kern: i = editorial accidental
!!!RDF**kern: > = above
!!!RDF**kern: < = below
!!!ENC: Katarzyna Serwa
!!!END: 2021-12-26
!!!ENC: Filip Voros
!!!END: 2021-12-22
